icons/evolvere-blue-folders-flat-vivid-dark-fallback/apps/64/lyx.svg

<?xml version="1.0" encoding="UTF-8" standalone="no"?>
<!-- Created with Inkscape (http://www.inkscape.org/) -->

<svg
   xmlns:dc="http://purl.org/dc/elements/1.1/"
   xmlns:cc="http://creativecommons.org/ns#"
   xmlns:rdf="http://www.w3.org/1999/02/22-rdf-syntax-ns#"
   xmlns:svg="http://www.w3.org/2000/svg"
   xmlns="http://www.w3.org/2000/svg"
   xmlns:sodipodi="http://sodipodi.sourceforge.net/DTD/sodipodi-0.dtd"
   xmlns:inkscape="http://www.inkscape.org/namespaces/inkscape"
   width="64"
   height="64"
   id="svg13094"
   version="1.1"
   inkscape:version="0.91+devel r"
   sodipodi:docname="lyx.svg">
  <sodipodi:namedview
     id="base"
     pagecolor="#ffffff"
     bordercolor="#666666"
     borderopacity="1.0"
     inkscape:pageopacity="0"
     inkscape:pageshadow="2"
     inkscape:zoom="11.313709"
     inkscape:cx="35.999557"
     inkscape:cy="31.951285"
     inkscape:document-units="px"
     inkscape:current-layer="g3880"
     showgrid="false"
     inkscape:snap-bbox="true"
     inkscape:bbox-paths="true"
     inkscape:bbox-nodes="true"
     inkscape:snap-bbox-edge-midpoints="true"
     inkscape:snap-bbox-midpoints="true"
     inkscape:object-paths="true"
     inkscape:snap-intersection-paths="true"
     inkscape:object-nodes="true"
     inkscape:snap-smooth-nodes="true"
     inkscape:snap-midpoints="true"
     inkscape:snap-object-midpoints="true"
     inkscape:snap-center="true"
     showguides="false"
     inkscape:guide-bbox="true"
     inkscape:window-width="1920"
     inkscape:window-height="1023"
     inkscape:window-x="-10"
     inkscape:window-y="35"
     inkscape:window-maximized="1"
     inkscape:snap-global="false"
     fit-margin-top="0"
     fit-margin-left="0"
     fit-margin-right="0"
     fit-margin-bottom="0"
     showborder="true"
     inkscape:showpageshadow="false"
     inkscape:snap-page="true">
    <inkscape:grid
       type="xygrid"
       id="grid3075"
       empspacing="5"
       visible="true"
       enabled="true"
       snapvisiblegridlinesonly="true"
       originx="1.6362304e-08px"
       originy="18px" />
    <sodipodi:guide
       orientation="0,1"
       position="-11,30"
       id="guide9148" />
    <sodipodi:guide
       orientation="1,0"
       position="32,70"
       id="guide9150" />
  </sodipodi:namedview>
  <defs
     id="defs13096" />
  <metadata
     id="metadata13099">
    <rdf:RDF>
      <cc:Work
         rdf:about="">
        <dc:format>image/svg+xml</dc:format>
        <dc:type
           rdf:resource="http://purl.org/dc/dcmitype/StillImage" />
        <dc:title></dc:title>
      </cc:Work>
    </rdf:RDF>
  </metadata>
  <path
     id="path6538"
     d="m 0,4 0,30 0,28 2,2 30,0 30,0 2,-2 L 64,34 64,4 32,4 0,4 Z"
     style="color:#000000;display:inline;overflow:visible;visibility:visible;fill:#aeb4c3;fill-opacity:1;fill-rule:nonzero;stroke:none;stroke-width:2.28571415;marker:none;enable-background:accumulate"
     inkscape:connector-curvature="0" />
  <path
     inkscape:connector-curvature="0"
     style="color:#000000;display:inline;overflow:visible;visibility:visible;fill:#e7ecf0;fill-opacity:1;fill-rule:nonzero;stroke:none;marker:none;enable-background:accumulate"
     d="M 2,0 0,1 0,4 19.5625,4 39.125,4 64,4 64,1 62,0 39.125,0 19.5625,0 2,0 Z"
     id="path6688" />
  <g
     id="g3043"
     inkscape:export-filename="folder.png"
     inkscape:export-xdpi="90"
     inkscape:export-ydpi="90"
     transform="translate(-0.62500009,0.082283)" />
  <g
     id="scalable"
     transform="matrix(1.0385892,0,0,1.0385892,1214.7222,1878.8121)"
     inkscape:label="#g3701"
     style="fill:#ffffff" />
  <path
     style="opacity:1;fill:#f2f5f7;fill-opacity:1;fill-rule:nonzero;stroke-width:1;stroke-linecap:butt;stroke-linejoin:miter;stroke-miterlimit:4;stroke-dasharray:none;stroke-dashoffset:0;stroke-opacity:1"
     d="M 0,3 0,6 2,4 Z"
     id="path4298"
     inkscape:connector-curvature="0"
     sodipodi:nodetypes="cccc" />
  <path
     inkscape:connector-curvature="0"
     style="opacity:1;fill:#ccd1db;fill-opacity:1;stroke:none;stroke-width:1;stroke-linecap:butt;stroke-linejoin:miter;stroke-miterlimit:4;stroke-dasharray:none;stroke-dashoffset:0;stroke-opacity:1;marker:none"
     id="path3028"
     d="M 64,6 62,4 64,3 Z" />
  <g
     id="g3889"
     transform="matrix(1.0589256,0,0,1.0589256,-2.4104237,-1.5919109)">
    <path
       style="color:#000000;font-style:normal;font-variant:normal;font-weight:normal;font-stretch:normal;font-size:medium;line-height:normal;font-family:Sans;-inkscape-font-specification:Sans;text-indent:0;text-align:start;text-decoration:none;text-decoration-line:none;letter-spacing:normal;word-spacing:normal;text-transform:none;direction:ltr;block-progression:tb;writing-mode:lr-tb;baseline-shift:baseline;text-anchor:start;display:inline;overflow:visible;visibility:visible;fill:#000000;fill-opacity:0.08944544;stroke:none;stroke-width:5.18248367;marker:none;enable-background:accumulate"
       d="m 42.263672,19.917969 -4.566406,2.449219 4.345703,8.205078 -0.607422,-0.628907 -0.01953,0.01758 -1.039063,-1.076172 -0.01953,0.01758 -1.039063,-1.076172 -5.183593,5.019531 -6.796875,-7.236328 -0.695313,10.146484 -0.142578,0.06445 -0.583984,-1.277343 -1.839844,0.839843 -9.675781,-11.164062 -4.7324222,2.085938 6.8496092,15.353515 1.058594,2.382813 8.472656,8.470703 2.382813,-1.091797 0.01563,-0.0078 7.230468,7.388672 5.128907,0.726563 1.457031,-10.6875 1.021484,-0.994141 3.445313,3.474609 5.318359,-4.814453 5.833984,6.304688 4.566407,-2.449219 -4.765625,-8.933594 7.048828,-6.353515 -11.947266,-12.310547 -4.078125,3.677734 z"
       transform="matrix(0.94435341,0,0,0.94435341,2.2762918,1.5033265)"
       id="path3798"
       inkscape:connector-curvature="0"
       sodipodi:nodetypes="cccccccccccccccccccccccccccccccccc" />
    <g
       id="g3880">
      <path
         style="color:#000000;fill:none;stroke:#247ae0;stroke-width:4.8940959;stroke-linecap:butt;stroke-linejoin:miter;stroke-miterlimit:4;stroke-opacity:1;stroke-dasharray:none;stroke-dashoffset:0;marker:none;visibility:visible;display:inline;overflow:visible;enable-background:accumulate"
         d="m 12.652638,24.359776 6.455806,14.489122 7.647427,-3.497121"
         id="path3779"
         inkscape:connector-curvature="0"
         sodipodi:nodetypes="ccc" />
      <path
         id="path3783"
         style="color:#000000;fill:none;stroke:#df412b;stroke-width:4.8940959;stroke-linecap:butt;stroke-linejoin:miter;stroke-miterlimit:4;stroke-opacity:1;stroke-dasharray:none;stroke-dashoffset:0;marker:none;visibility:visible;display:inline;overflow:visible;enable-background:accumulate"
         d="m 39.037777,20.459551 11.061148,20.76828 M 35.762594,39.135442 52.773502,23.812143"
         inkscape:connector-curvature="0"
         sodipodi:nodetypes="cccc" />
      <path
         id="path3781"
         style="color:#000000;fill:none;stroke:#f6c419;stroke-width:4.8940959;stroke-linecap:butt;stroke-linejoin:miter;stroke-miterlimit:4;stroke-opacity:1;stroke-dasharray:none;stroke-dashoffset:0;marker:none;visibility:visible;display:inline;overflow:visible;enable-background:accumulate"
         d="M 31.005666,37.351445 40.097177,28.53447 M 29.401878,48.374729 30.872486,37.651424 24.921629,25.78714"
         inkscape:connector-curvature="0"
         sodipodi:nodetypes="ccccc" />
    </g>
  </g>
</svg>

<svg xmlns="http://www.w3.org/2000/svg" viewBox="0 0 64 64"><g color="#000"><path d="m0 4v30 28l2 2h30 30l2-2v-28-30h-32-32" fill="#aeb4c3"/><path d="m2 0l-2 1v3h19.563 19.563 24.875v-3l-2-1h-22.875-19.563-17.563" fill="#e7ecf0"/></g><path d="m0 3v3l2-2" fill="#f2f5f7"/><path d="m64 6l-2-2 2-1" fill="#ccd1db"/><g transform="matrix(1.05893 0 0 1.05893-2.41-1.592)" color="#000"><path d="m42.26 19.918l-4.566 2.449 4.346 8.205-.607-.629-.02.018-1.039-1.076-.02.018-1.039-1.076-5.184 5.02-6.797-7.236-.695 10.146-.143.064-.584-1.277-1.84.84-9.676-11.164-4.732 2.086 6.85 15.354 1.059 2.383 8.473 8.471 2.383-1.092.016-.008 7.23 7.389 5.129.727 1.457-10.688 1.021-.994 3.445 3.475 5.318-4.814 5.834 6.305 4.566-2.449-4.766-8.934 7.05-6.354-11.947-12.311-4.078 3.678z" transform="matrix(.94435 0 0 .94435 2.276 1.503)" fill-opacity=".089"/><g fill="none" stroke-width="4.894"><path d="m12.653 24.36l6.456 14.489 7.647-3.497" stroke="#247ae0"/><path d="m39.04 20.46l11.06 20.768m-14.336-2.092l17.01-15.323" stroke="#df412b"/><path d="m31.01 37.35l9.09-8.817m-10.695 19.84l1.471-10.723-5.951-11.864" stroke="#f6c419"/></g></g></svg>
